X:1
L:1/8
M:4/4
K:D
|: A2 FA BAFA | A2 FA BAFA | B2 cA B2 cA | B2 cA BAFA | A2 FA BAFA | A2 FA BAFA | FABc d2 dB | 
 AFEF D4 :: Addd Addd | AddA BAFA | B2 cA B2 cA | B2 cA BAFA | Addd Addd | AddA BAFA | FABc d2 dB | 
 AFEF D4 :|
